X: 16
T:Rasus Cas-Gwent
T:Chepstow Races
M:6/8
L:1/8
Q:130
S:Cadw Twmpath Collection
R:Jig
A:Wales
Z:brian_martin12345@yahoo.com
K:G
gBc dGA|BDF GBd|gBc dGA|B^ce def|
gBc dGA|BDF GBd|efg afd|aefg3:||
fdA FAd|e^cA GAc|dfa afd|egfe2A|
fdA FAd|e^cA GAc|dfa afd|1gba"Fine"g3:||2gB^c def||
